X:77
T:B077-  Come, love let's walk into the Spring
Q:1/4=120
L:1/4
M:4/4
K:Gmixolydian
GG/2G/2^FD|Bcd2|dc/2B/2AB|c3/2B/2B2:|\
AA/2B/4c/4dA|BA/2G/2^F2|G^F/2G/2A2|\
BA/2G/2^FG/4A/4B/2|A3/2G/2G2|]

